svgs/light/square-arrow-up-right.svg

<svg xmlns="http://www.w3.org/2000/svg" viewBox="0 0 448 512"><!-- Font Awesome Pro 6.0.0-alpha2 by @fontawesome - https://fontawesome.com License - https://fontawesome.com/license (Commercial License) --><path d="M0 96V416C0 451.344 28.654 480 64 480H384C419.346 480 448 451.344 448 416V96C448 60.656 419.346 32 384 32H64C28.654 32 0 60.656 0 96ZM32 96C32 78.355 46.355 64 64 64H384C401.645 64 416 78.355 416 96V416C416 433.645 401.645 448 384 448H64C46.355 448 32 433.645 32 416V96ZM132.688 324.688C126.438 330.938 126.438 341.063 132.688 347.312C135.812 350.438 139.906 352 144 352S152.188 350.438 155.312 347.312L288 214.625V304C288 312.844 295.156 320 304 320S320 312.844 320 304V176.375C320 167.563 312.859 160.406 304.047 160.375L176.047 160H176C167.188 160 160.031 167.125 160 175.969C159.969 184.781 167.109 191.969 175.953 192L265.102 192.273L132.688 324.688Z"/></svg>

<svg xmlns="http://www.w3.org/2000/svg" viewBox="0 0 448 512"><!--! Font Awesome Pro 6.3.0 by @fontawesome - https://fontawesome.com License - https://fontawesome.com/license (Commercial License) Copyright 2023 Fonticons, Inc. --><path d="M0 96v320c0 35.34 28.65 64 64 64h320c35.35 0 64-28.66 64-64V96c0-35.34-28.65-64-64-64H64C28.65 32 0 60.66 0 96zM32 96c0-17.64 14.36-32 32-32h320c17.64 0 32 14.36 32 32v320c0 17.64-14.36 32-32 32H64c-17.64 0-32-14.36-32-32V96zM132.7 324.7c-6.25 6.25-6.25 16.38 0 22.62C135.8 350.4 139.9 352 144 352s8.188-1.562 11.31-4.688L288 214.6V304c0 8.844 7.156 16 16 16S320 312.8 320 304V176.4c0-8.812-7.141-15.97-15.95-16L176 160C167.2 160 160 167.1 160 175.1C159.1 184.8 167.1 191.1 175.1 192l89.15 .2734L132.7 324.7z"/></svg>
